svg/fluentui-system-icons/ic_fluent_alert_snooze_16_filled.svg

<svg width="16" height="16" viewBox="0 0 16 16" fill="none" xmlns="http://www.w3.org/2000/svg">
<path d="M10.5 1.5C10.5 1.22386 10.7239 1 11 1H14.5C14.6864 1 14.8574 1.10373 14.9435 1.26909C15.0296 1.43446 15.0165 1.634 14.9096 1.78673L11.9603 6H14.5C14.7761 6 15 6.22386 15 6.5C15 6.77614 14.7761 7 14.5 7H11C10.8136 7 10.6426 6.89627 10.5565 6.73091C10.4704 6.56554 10.4835 6.366 10.5904 6.21327L13.5397 2H11C10.7239 2 10.5 1.77614 10.5 1.5ZM6.00001 5.5C6.00001 5.22386 6.22386 5 6.50001 5H9.00001C9.19402 5 9.37051 5.11223 9.4528 5.28792C9.53509 5.46361 9.50832 5.67105 9.38412 5.82009L7.56753 8H9.00001C9.27615 8 9.50001 8.22386 9.50001 8.5C9.50001 8.77614 9.27615 9 9.00001 9H6.50001C6.306 9 6.1295 8.88777 6.04721 8.71208C5.96492 8.53639 5.99169 8.32895 6.1159 8.17991L7.93249 6H6.50001C6.22386 6 6.00001 5.77614 6.00001 5.5ZM10.3404 4.82662L11.3061 3.44709C10.4839 2.55723 9.30704 2 8.00001 2C5.51473 2 3.50001 4.01472 3.50001 6.5V8.9014L2.5357 11.3145C2.47415 11.4685 2.49299 11.643 2.58601 11.7804C2.67904 11.9177 2.83412 12 3 12H13C13.1659 12 13.321 11.9177 13.414 11.7804C13.507 11.643 13.5259 11.4685 13.4643 11.3145L12.5 8.9014V8H11C10.7723 8 10.5523 7.94843 10.3541 7.85382C10.4476 8.0495 10.5 8.26863 10.5 8.5C10.5 9.32843 9.82845 10 9.00002 10H6.50002C5.91799 10 5.3885 9.66331 5.14163 9.13623C4.89476 8.60916 4.97508 7.98685 5.34769 7.53972L5.90108 6.87565C5.37074 6.64443 5.00002 6.11551 5.00002 5.5C5.00002 4.67157 5.67159 4 6.50002 4H9.00002C9.56825 4 10.0864 4.32092 10.3404 4.82662ZM7.99998 14.5C7.06806 14.5 6.28501 13.8626 6.06299 13H9.93697C9.71495 13.8626 8.9319 14.5 7.99998 14.5Z" fill="#212121"/>
</svg>

<svg xmlns="http://www.w3.org/2000/svg" width="16" height="16"><path d="M10.5 1.5A.5.5 0 0 1 11 1h3.5a.5.5 0 0 1 .41.787L11.96 6h2.54a.5.5 0 0 1 0 1H11a.5.5 0 0 1-.41-.787L13.54 2H11a.5.5 0 0 1-.5-.5ZM6 5.5a.5.5 0 0 1 .5-.5H9a.5.5 0 0 1 .384.82L7.568 8H9a.5.5 0 0 1 0 1H6.5a.5.5 0 0 1-.384-.82L7.932 6H6.5a.5.5 0 0 1-.5-.5Zm4.34-.673.966-1.38A4.5 4.5 0 0 0 3.5 6.5v2.401l-.964 2.414A.5.5 0 0 0 3 12h10a.5.5 0 0 0 .464-.685L12.5 8.9V8H11c-.228 0-.448-.052-.646-.146A1.5 1.5 0 0 1 9 10H6.5a1.5 1.5 0 0 1-1.152-2.46l.553-.664A1.5 1.5 0 0 1 6.5 4H9a1.5 1.5 0 0 1 1.34.827ZM8 14.5A2 2 0 0 1 6.063 13h3.874A2 2 0 0 1 8 14.5Z"/></svg>
